._scraped/app.urodapter.com/img/icons/menu-icon-03.svg

<svg fill="none" height="33" viewBox="0 0 33 33" width="33" xmlns="http://www.w3.org/2000/svg"><path d="m18.777 18.5193c2.0792-2.0506 3.223-4.7707 3.223-7.67 0-2.89928-1.1438-5.62462-3.223-7.66995-4.2867-4.23825-11.26728-4.23825-15.55397-.00527-2.0792 2.0506-3.22303 4.77067-3.22303 7.67002 0 2.8993 1.14383 5.6246 3.22303 7.6699 2.00438 1.9768 4.59135 3.0153 7.21577 3.1471v4.7601h-4.9869c-.31001 0-.56123.2478-.56123.5535 0 .3058.25122.5535.56123.5535h4.9869v4.9183c0 .3057.2512.5535.5612.5535s.5612-.2478.5612-.5535v-4.9183h4.9869c.31 0 .5612-.2477.5612-.5535 0-.3057-.2512-.5535-.5612-.5535h-4.9869v-4.7601c2.6244-.1318 5.2167-1.1703 7.2158-3.1471zm-17.65455-7.6752c0-2.60415 1.02624-5.05011 2.89164-6.88985 1.9242-1.89772 4.45773-2.84658 6.98591-2.84658 2.5282 0 5.0564.94886 6.9859 2.84658 1.8654 1.83974 2.8917 4.2857 2.8917 6.88985 0 2.6041-1.0263 5.05-2.8917 6.8898-3.8537 3.8007-10.11807 3.8007-13.97181 0-1.8654-1.8398-2.89164-4.2857-2.89164-6.8898z" fill="#52b2d6"/></svg>

<svg width="33" height="33" viewBox="0 0 33 33" fill="none" xmlns="http://www.w3.org/2000/svg">
<path d="M18.777 18.5193C20.8562 16.4687 22 13.7486 22 10.8493C22 7.95002 20.8562 5.22468 18.777 3.17935C14.4903 -1.0589 7.50972 -1.0589 3.22303 3.17408C1.14383 5.22468 0 7.94475 0 10.8441C0 13.7434 1.14383 16.4687 3.22303 18.514C5.22741 20.4908 7.81438 21.5293 10.4388 21.6611V26.4212H5.4519C5.14189 26.4212 4.89067 26.669 4.89067 26.9747C4.89067 27.2805 5.14189 27.5282 5.4519 27.5282H10.4388V32.4465C10.4388 32.7522 10.69 33 11 33C11.31 33 11.5612 32.7522 11.5612 32.4465V27.5282H16.5481C16.8581 27.5282 17.1093 27.2805 17.1093 26.9747C17.1093 26.669 16.8581 26.4212 16.5481 26.4212H11.5612V21.6611C14.1856 21.5293 16.7779 20.4908 18.777 18.514V18.5193ZM1.12245 10.8441C1.12245 8.23995 2.14869 5.79399 4.01409 3.95425C5.93829 2.05653 8.47182 1.10767 11 1.10767C13.5282 1.10767 16.0564 2.05653 17.9859 3.95425C19.8513 5.79399 20.8776 8.23995 20.8776 10.8441C20.8776 13.4482 19.8513 15.8941 17.9859 17.7339C14.1322 21.5346 7.86783 21.5346 4.01409 17.7339C2.14869 15.8941 1.12245 13.4482 1.12245 10.8441Z" fill="#52B2D6"/>
</svg>
